X:3
T:Hora batrineasca
R:hora
H:First part also played one octave down
H:See also #2
O:Romania
Z:id:hn-hora-3
M:C|
K:Ador ^d =c
|: ABc^d eA^de | cABc ^d3c | eA^de cAc2 | ^deec e4 |
   ABc^d eA^de | cABc ^d3c | eA^de cAec | Aece A4 :|
|: aefg afgf | e3c ^d3c | eA^dA cAc2 | ^deec e4 |
   g2a2- a2g2 | fefe ^dddc | e2^d2 cAec | Aece A4 :|
|: eA^de eA^de | cAc2 ^d3c | eA^de cAc2 | ^deec e4 |
   [1 eA^de eA^de | cAc2 ^d3c | eA^de cAec | Aece A4 :|
   [2 ABc^d eA^de | cAc2 ^d3c | eA^de cAec | Aece A4 || 

